public/assets/trusts-llama/jpmorgan.svg

<svg fill="none" height="26" viewBox="0 0 124 26" width="124" xmlns="http://www.w3.org/2000/svg"><g fill="#fff"><path d="m12.8681.111816h-7.21382v.613751h2.29489v11.928133c0 3.5579-.99623 4.5987-3.22886 4.5987-.39395.0423-.78861-.0735-1.09719-.322s-.50583-.6095-.54837-1.0034c-.01329-.0974-.01329-.1961 0-.2935 0-1.2987-.07116-2.0992-1.26308-2.0992-1.191918 0-1.325342 1.2097-1.325342 1.5744 0 1.6455.729382 2.8997 4.011612 2.8997 3.91377 0 6.03076-1.3164 6.03076-5.6749v-11.616828h2.4105z"/><path d="m13.8291 15.2333c-.1861-.0066-.3716.0255-.5446.0944s-.3299.1731-.4605.3058c-.1331.1309-.238.2875-.3084.4604-.0703.1728-.1046.3582-.1008.5448-.0028.1824.0321.3635.1025.5319s.1748.3204.3067.4465c.2679.2638.6292.4109 1.0051.4092.3814.0025.7486-.1443 1.023-.4092.1318-.1261.2363-.2781.3067-.4465s.1053-.3495.1024-.5319c.0024-.1823-.0312-.3632-.0988-.5324-.0675-.1693-.1678-.3236-.295-.4541s-.2789-.2346-.4463-.3065c-.1675-.0719-.3475-.1101-.5297-.1124z"/><path d="m29.8396 15.2331c-.1818-.0047-.3628.0266-.5324.0921-.1697.0655-.3247.1639-.4562.2896-.1314.1257-.2367.2761-.3098.4426-.073.1666-.1124.3459-.1159.5278v.0533c0 .1854.0397.3687.1164.5374.0767.1688.1887.3192.3283.4411.269.2621.6296.4089 1.0052.4091.1879.0041.3747-.0301.549-.1004.1743-.0704.3325-.1754.465-.3087.1364-.1235.245-.2747.3187-.4433.0736-.1687.1105-.3511.1082-.5352.0049-.1875-.0298-.3739-.1018-.5471-.0721-.1732-.1798-.3293-.3162-.458-.1295-.1293-.2836-.2313-.4532-.3001-.1696-.0687-.3512-.1028-.5342-.1002"/><path d="m24.8496.111816h-7.116v.613751h2.0725v13.618133c.0542.5556-.0094 1.1163-.1868 1.6456-.0812.19-.2029.36-.3565.4983-.1536.1382-.3355.2414-.5329.3022-.4329.1457-.8864.2207-1.3432.2224v.5693h7.5607v-.5693c-.4907.0032-.9792-.0657-1.4499-.2046-.1967-.0624-.3778-.1662-.5312-.3042-.1534-.1381-.2755-.3073-.3583-.4963-.1464-.3515-.2103-.7319-.1868-1.1119v-4.6609h1.8858c5.4615 0 7.0003-2.15262 7.0003-5.07906 0-2.92643-.9251-5.043424-6.4577-5.043424zm-.9785 9.428634h-1.4321v-8.734829h1.2987c4.2162-.01779 5.2124 1.698929 5.2124 4.509729s-1.6544 4.28736-5.0078 4.28736"/><path d="m53.8565 15.9448c-.1163-.3862-.1674-.789-.1512-1.192v-14.027274h1.8768v-.569276h-4.5097l-5.3726 13.29795c-.0083.0221-.0228.0413-.0417.0555s-.0415.0227-.065.0245c-.0276.0011-.0549-.0059-.0786-.0201-.0237-.0143-.0428-.0351-.0548-.0599 0 0-5.6483-13.137841-5.7106-13.29795h-4.9722v.551486h2.1792v14.747764c-.0199.3168-.121.6231-.2935.8895-.2035.2661-.4825.4645-.8006.5693-.3409.0789-.691.1118-1.0407.0979v.5692h4.9278v-.5692c-.3017.0037-.6021-.0414-.8895-.1335-.3516-.08-.6654-.2777-.8895-.5604-.1749-.2658-.279-.572-.3024-.8894l-.0534-1.2275v-11.64352h.2936s6.431 14.84562 6.431 15.01462h.6226l6.0664-14.89009h.1601v11.99929c.0078.4142-.0431.8275-.1512 1.2275-.0664.1781-.1674.3413-.2972.4802-.1297.139-.2857.2508-.4589.3292-.4029.142-.827.2142-1.2542.2135v.5693h6.8936v-.5693c-.4373-.001-.8709-.0793-1.2809-.2313-.1851-.0829-.3496-.2055-.4818-.3593-.1322-.1537-.2289-.3348-.2831-.5302"/><path d="m63.1514 4.78174c-3.6825 0-6.0308 2.42832-6.0308 6.67116 0 6.2265 4.8655 6.6268 5.9062 6.6268 2.0814 0 6.0308-1.2898 6.0308-6.7424 0-4.28735-2.5262-6.55556-5.9329-6.55556m0 12.52406c-2.7752 0-3.2022-1.3698-3.2022-5.7906 0-3.42455.2135-5.99518 3.2022-5.99518 3.211 0 3.2288 2.66848 3.2288 5.75498 0 4.4475-.7649 5.9952-3.2288 5.9952"/><path d="m78.7084 4.96851c-2.2059 0-2.8819 1.29866-3.5046 2.61511h-.169s-.3202-1.91241-.4358-2.48169h-4.2963v.64933h2.3127v8.65474c.0317.6065-.0653 1.2127-.2846 1.779-.2313.4359-.765.6493-1.6367.6493h-.3825v.765h7.116v-.765h-.338c-.9429 0-1.3432-.2045-1.5922-.6137-.2516-.5698-.3527-1.1946-.2936-1.8146v-4.5097c0-1.50324 1.1386-3.22886 2.5084-3.22886s1.3965 2.19705 3.0243 1.31645c.8895-.48033.7294-2.99759-2.0103-2.99759"/><path d="m107.154 16.2917c-.765 0-1.014-.4269-1.058-1.1296v-6.82243c.046-.46728-.01-.93895-.164-1.38267-.153-.44372-.401-.84897-.726-1.18796-.667-.65823-1.93-1.00513-3.771-1.00513-1.376-.10179-2.7495.23448-3.9229.96065-.3459.20897-.6317.50398-.8297.85627-.198.3523-.3013.74988-.2999 1.15399-.0225.16233-.006.32768.0481.48236.0542.15468.1444.29424.2632.40713.2178.1856.4967.28385.7827.27574.7116 0 1.103-.36469 1.2631-1.28976.019-.5378.2161-1.05405.5604-1.46767.2309-.20893.5028-.36745.798-.46547.296-.09801.609-.13337.919-.1038.349-.04014.702.00438 1.031.12979.328.12541.621.32802.854.5907.357.53898.532 1.17803.499 1.82346v2.0903c-2.286.2046-7.6857.6315-7.4455 4.7321.0829.8286.4769 1.595 1.1025 2.1447.6256.5496 1.4363.8417 2.2687.8173.8043-.0243 1.5933-.2211 2.3143-.5772.722-.356 1.358-.8629 1.866-1.4864.11.5561.415 1.0546.861 1.4053.445.3507 1.001.5306 1.568.5071 1.663 0 2.668-.8183 2.775-2.8375h-.436c-.107.8895-.649 1.3521-1.103 1.3521m-3.745-1.3165c.009.0132.014.0286.014.0445 0 .0158-.005.0313-.014.0445v.0533c-.738.8257-1.748 1.3591-2.846 1.5033-.257.0095-.514-.0318-.7546-.1214-.2411-.0897-.4621-.2259-.6505-.4011-.1883-.1751-.3403-.3857-.4472-.6196s-.1667-.4866-.1759-.7437c-.0088-.0976-.0088-.1958 0-.2935 0-2.3216 3.2022-3.4868 4.9452-3.4868z"/><path d="m121.795 16.2027c-.327-.5626-.482-1.2091-.444-1.859v-5.64832c.036-.72355-.107-1.44486-.418-2.09921-.29-.5296-.725-.96493-1.255-1.25418-.586-.2861-1.233-.42646-1.885-.40917-.836-.0208-1.66.1943-2.379.62065s-1.304 1.04669-1.686 1.78988h-.276l-.445-2.25932h-3.851v.64933h1.948v8.61034c.015.4903-.033.9805-.143 1.4587-.045.1835-.136.3528-.263.4926-.127.1397-.287.2456-.466.308-.345.1252-.71.1855-1.076.1779v.7916h6.173v-.8005c-.237.0125-.473-.0282-.691-.119-.219-.0908-.414-.2295-.572-.4058-.28-.549-.4-1.1653-.347-1.779v-3.2822c-.119-1.20651.042-2.42415.471-3.55801.25-.4336.613-.79149 1.05-1.03576.437-.24428.932-.36586 1.432-.35185.343-.03483.688.0307.995.18861.306.1579.56.4014.731.70088.302.942.444 1.92841.418 2.91753v4.0739c.046.503.046 1.0091 0 1.5121-.018.1795-.076.3527-.17.5067s-.221.2848-.373.3828c-.302.1691-.642.2579-.987.258v.8005h5.95v-.7916c-.747-.0534-1.236-.2313-1.458-.5782"/><path d="m93.8833 4.2749c-.199.08255-.3724.21678-.5022.3888-.1298.17201-.2113.37558-.2361.58965-.0978.50701-.2935.80944-.5514.88949-.2947.07726-.6063.05856-.8895-.05337-1.1251-.95426-2.5745-1.43846-4.0472-1.35203-1.2298-.09586-2.4475.2997-3.3862 1.10001-.9387.8003-1.5218 1.94007-1.6217 3.16956v.56038c0 2.66851 1.0229 3.90491 3.2556 4.37631.1423 0 .1423.1779 0 .1957-1.8769.3469-3.558.8895-3.558 2.7129-.0017.4256.1293.841.3749 1.1886.2455.3476.5933.6099.9949.7505 1.1897.4093 2.4424.6051 3.7003.5782.992-.0094 1.9838.0351 2.9709.1334.5772.0522 1.133.2446 1.6189.5604.2104.1733.376.3948.4828.6456s.1517.5236.1309.7954c-.0089.4271-.1402.8427-.3783 1.1975-.238.3547-.5729.6337-.9648.8039-1.0496.5149-2.2122.7566-3.3801.7027-1.0793.0782-2.1581-.1598-3.1043-.685-.2783-.1935-.49-.4683-.6062-.7867s-.1313-.6649-.0431-.9922c.0852-.2549.0668-.533-.0514-.7744-.1182-.2413-.3266-.4265-.5802-.5154h-.1334c-.2049-.0261-.413.005-.6014.0897-.1883.0848-.3496.22-.466.3906-.2051.3461-.3012.746-.2757 1.1475.0227.5763.2385 1.1282.6128 1.567.3743.4389.8853.7391 1.4508.8524 1.1124.3546 2.275.5258 3.4423.507 1.3464.0628 2.6889-.1869 3.9227-.7294.732-.3075 1.358-.8226 1.8006-1.4817.4426-.6592.6824-1.4335.69-2.2275.0347-.7669-.1705-1.5255-.5871-2.1703-1.2453-1.7079-3.0065-1.4766-6.9736-1.6723-1.9035 0-2.2771-.338-2.2771-.8895 0-.8895.7027-1.2008 3.4423-1.6189 2.7397-.418 5.2569-1.4143 5.2569-4.71427.0083-.80696-.1618-1.60578-.4981-2.33937.5122.14217 1.0534.14217 1.5655 0 .2366-.06371.4575-.1756.6488-.32866s.349-.344.4631-.56084c.1211-.16557.2032-.35639.2402-.55817.0369-.20178.0278-.40931-.0267-.60706-.2313-.73828-.6761-1.00513-1.3521-.80055m-6.1375 9.09952c-1.6188 0-2.5884-.5871-2.5884-3.87819 0-2.32158.8094-4.0472 2.5884-4.0472 2.0281 0 2.5796 1.57441 2.5796 3.99383 0 3.43346-1.0941 3.93156-2.5796 3.93156z"/></g></svg>

<svg xmlns="http://www.w3.org/2000/svg" width="124" height="26" viewBox="0 0 124 26" fill="none">
  <path d="M12.8681 0.111816H5.65428V0.725567H7.94917V12.6537C7.94917 16.2116 6.95294 17.2524 4.72031 17.2524C4.32636 17.2947 3.9317 17.1789 3.62312 16.9304C3.31454 16.6819 3.11729 16.3209 3.07475 15.927C3.06146 15.8296 3.06146 15.7309 3.07475 15.6335C3.07475 14.3348 3.00359 13.5343 1.81167 13.5343C0.619752 13.5343 0.486328 14.744 0.486328 15.1087C0.486328 16.7542 1.21571 18.0084 4.49794 18.0084C8.41171 18.0084 10.5287 16.692 10.5287 12.3335V0.716672H12.9392L12.8681 0.111816Z" fill="white"/>
  <path d="M13.8291 15.2333C13.643 15.2267 13.4575 15.2588 13.2845 15.3277C13.1115 15.3966 12.9546 15.5008 12.824 15.6335C12.6909 15.7644 12.586 15.921 12.5156 16.0939C12.4453 16.2667 12.411 16.4521 12.4148 16.6387C12.412 16.8211 12.4469 17.0022 12.5173 17.1706C12.5877 17.339 12.6921 17.491 12.824 17.6171C13.0919 17.8809 13.4532 18.028 13.8291 18.0263C14.2105 18.0288 14.5777 17.882 14.8521 17.6171C14.9839 17.491 15.0884 17.339 15.1588 17.1706C15.2292 17.0022 15.2641 16.8211 15.2612 16.6387C15.2636 16.4564 15.23 16.2755 15.1624 16.1063C15.0949 15.937 14.9946 15.7827 14.8674 15.6522C14.7402 15.5217 14.5885 15.4176 14.4211 15.3457C14.2536 15.2738 14.0736 15.2356 13.8914 15.2333H13.8291Z" fill="white"/>
  <path d="M29.8396 15.2331C29.6578 15.2284 29.4768 15.2597 29.3072 15.3252C29.1375 15.3907 28.9825 15.4891 28.851 15.6148C28.7196 15.7405 28.6143 15.8909 28.5412 16.0574C28.4682 16.224 28.4288 16.4033 28.4253 16.5852V16.6385C28.4253 16.8239 28.465 17.0072 28.5417 17.1759C28.6184 17.3447 28.7304 17.4951 28.87 17.617C29.139 17.8791 29.4996 18.0259 29.8752 18.0261C30.0631 18.0302 30.2499 17.996 30.4242 17.9257C30.5985 17.8553 30.7567 17.7503 30.8892 17.617C31.0256 17.4935 31.1342 17.3423 31.2079 17.1737C31.2815 17.005 31.3184 16.8226 31.3161 16.6385C31.321 16.451 31.2863 16.2646 31.2143 16.0914C31.1422 15.9182 31.0345 15.7621 30.8981 15.6334C30.7686 15.5041 30.6145 15.4021 30.4449 15.3333C30.2753 15.2646 30.0937 15.2305 29.9107 15.2331" fill="white"/>
  <path d="M24.8496 0.111816H17.7336V0.725567H19.8061V14.3437C19.8603 14.8993 19.7967 15.46 19.6193 15.9893C19.5381 16.1793 19.4164 16.3493 19.2628 16.4876C19.1092 16.6258 18.9273 16.729 18.7299 16.7898C18.297 16.9355 17.8435 17.0105 17.3867 17.0122V17.5815H24.9474V17.0122C24.4567 17.0154 23.9682 16.9465 23.4975 16.8076C23.3008 16.7452 23.1197 16.6414 22.9663 16.5034C22.8129 16.3653 22.6908 16.1961 22.608 16.0071C22.4616 15.6556 22.3977 15.2752 22.4212 14.8952V10.2343H24.307C29.7685 10.2343 31.3073 8.08168 31.3073 5.15524C31.3073 2.22881 30.3822 0.111816 24.8496 0.111816ZM23.8711 9.54045H22.439V0.805621H23.7377C27.9539 0.787831 28.9501 2.50455 28.9501 5.31535C28.9501 8.12615 27.2957 9.60271 23.9423 9.60271" fill="white"/>
  <path d="M53.8565 15.9448C53.7402 15.5586 53.6891 15.1558 53.7053 14.7528V0.725526H55.5821V0.15625H51.0724L45.6998 13.4542C45.6915 13.4763 45.677 13.4955 45.6581 13.5097C45.6392 13.5239 45.6166 13.5324 45.5931 13.5342C45.5655 13.5353 45.5382 13.5283 45.5145 13.5141C45.4908 13.4998 45.4717 13.479 45.4597 13.4542C45.4597 13.4542 39.8114 0.316359 39.7491 0.15625H34.7769V0.707736H36.9561V15.4555C36.9362 15.7723 36.8351 16.0786 36.6626 16.345C36.4591 16.6111 36.1801 16.8095 35.862 16.9143C35.5211 16.9932 35.171 17.0261 34.8213 17.0122V17.5814H39.7491V17.0122C39.4474 17.0159 39.147 16.9708 38.8596 16.8787C38.508 16.7987 38.1942 16.601 37.9701 16.3183C37.7952 16.0525 37.6911 15.7463 37.6677 15.4289L37.6143 14.2014V2.55788H37.9079C37.9079 2.55788 44.3389 17.4035 44.3389 17.5725H44.9615L51.0279 2.68241H51.188V14.6817C51.1958 15.0959 51.1449 15.5092 51.0368 15.9092C50.9704 16.0873 50.8694 16.2505 50.7396 16.3894C50.6099 16.5284 50.4539 16.6402 50.2807 16.7186C49.8778 16.8606 49.4537 16.9328 49.0265 16.9321V17.5014H55.9201V16.9321C55.4828 16.9311 55.0492 16.8528 54.6392 16.7008C54.4541 16.6179 54.2896 16.4953 54.1574 16.3415C54.0252 16.1878 53.9285 16.0067 53.8743 15.8113" fill="white"/>
  <path d="M63.1514 4.78174C59.4689 4.78174 57.1206 7.21006 57.1206 11.4529C57.1206 17.6794 61.9861 18.0797 63.0268 18.0797C65.1082 18.0797 69.0576 16.7899 69.0576 11.3373C69.0576 7.04995 66.5314 4.78174 63.1247 4.78174M63.1247 17.3058C60.3495 17.3058 59.9225 15.936 59.9225 11.5152C59.9225 8.09065 60.136 5.52002 63.1247 5.52002C66.3357 5.52002 66.3535 8.1885 66.3535 11.275C66.3535 15.7225 65.5886 17.2702 63.1247 17.2702" fill="white"/>
  <path d="M78.7084 4.96851C76.5025 4.96851 75.8265 6.26717 75.2038 7.58362H75.0348C75.0348 7.58362 74.7146 5.67121 74.599 5.10193H70.3027V5.75126H72.6154V14.406C72.6471 15.0125 72.5501 15.6187 72.3308 16.185C72.0995 16.6209 71.5658 16.8343 70.6941 16.8343H70.3116V17.5993H77.4276V16.8343H77.0896C76.1467 16.8343 75.7464 16.6298 75.4974 16.2206C75.2458 15.6508 75.1447 15.026 75.2038 14.406V9.8963C75.2038 8.39306 76.3424 6.66744 77.7122 6.66744C79.082 6.66744 79.1087 8.86449 80.7365 7.98389C81.626 7.50356 81.4659 4.9863 78.7262 4.9863" fill="white"/>
  <path d="M107.154 16.2917C106.389 16.2917 106.14 15.8648 106.096 15.1621V8.33967C106.142 7.87239 106.086 7.40072 105.932 6.957C105.779 6.51328 105.531 6.10803 105.206 5.76904C104.539 5.11081 103.276 4.76391 101.435 4.76391C100.059 4.66212 98.6855 4.99839 97.5121 5.72456C97.1662 5.93353 96.8804 6.22854 96.6824 6.58083C96.4844 6.93313 96.3811 7.33071 96.3825 7.73482C96.36 7.89715 96.3765 8.0625 96.4306 8.21718C96.4848 8.37186 96.575 8.51142 96.6938 8.62431C96.9116 8.80991 97.1905 8.90816 97.4765 8.90005C98.1881 8.90005 98.5795 8.53536 98.7396 7.61029C98.7586 7.07249 98.9557 6.55624 99.3 6.14262C99.5309 5.93369 99.8028 5.77517 100.098 5.67715C100.394 5.57914 100.707 5.54378 101.017 5.57335C101.366 5.53321 101.719 5.57773 102.048 5.70314C102.376 5.82855 102.669 6.03116 102.902 6.29384C103.259 6.83282 103.434 7.47187 103.401 8.1173V10.2076C101.115 10.4122 95.7153 10.8391 95.9555 14.9397C96.0384 15.7683 96.4324 16.5347 97.058 17.0844C97.6836 17.634 98.4943 17.9261 99.3267 17.9017C100.131 17.8774 100.92 17.6806 101.641 17.3245C102.363 16.9685 102.999 16.4616 103.507 15.8381C103.617 16.3942 103.922 16.8927 104.368 17.2434C104.813 17.5941 105.369 17.774 105.936 17.7505C107.599 17.7505 108.604 16.9322 108.711 14.913H108.275C108.168 15.8025 107.626 16.2651 107.172 16.2651M103.427 14.9486C103.436 14.9618 103.441 14.9772 103.441 14.9931C103.441 15.0089 103.436 15.0244 103.427 15.0376V15.0909C102.689 15.9166 101.679 16.45 100.581 16.5942C100.324 16.6037 100.067 16.5624 99.8264 16.4728C99.5853 16.3831 99.3643 16.2469 99.1759 16.0717C98.9876 15.8966 98.8356 15.686 98.7287 15.4521C98.6218 15.2182 98.562 14.9655 98.5528 14.7084C98.544 14.6108 98.544 14.5126 98.5528 14.4149C98.5528 12.0933 101.755 10.9281 103.498 10.9281L103.427 14.9486Z" fill="white"/>
  <path d="M121.795 16.2027C121.468 15.6401 121.313 14.9936 121.351 14.3437V8.69538C121.387 7.97183 121.244 7.25052 120.933 6.59617C120.643 6.06657 120.208 5.63124 119.678 5.34199C119.092 5.05589 118.445 4.91553 117.793 4.93282C116.957 4.91202 116.133 5.12712 115.414 5.55347C114.695 5.97982 114.11 6.60016 113.728 7.34335H113.452L113.007 5.08403H109.156V5.73336H111.104V14.3437C111.119 14.834 111.071 15.3242 110.961 15.8024C110.916 15.9859 110.825 16.1552 110.698 16.295C110.571 16.4347 110.411 16.5406 110.232 16.603C109.887 16.7282 109.522 16.7885 109.156 16.7809V17.5725H115.329V16.772C115.092 16.7845 114.856 16.7438 114.638 16.653C114.419 16.5622 114.224 16.4235 114.066 16.2472C113.786 15.6982 113.666 15.0819 113.719 14.4682V11.186C113.6 9.97949 113.761 8.76185 114.19 7.62799C114.44 7.19439 114.803 6.8365 115.24 6.59223C115.677 6.34795 116.172 6.22637 116.672 6.24038C117.015 6.20555 117.36 6.27108 117.667 6.42899C117.973 6.58689 118.227 6.83039 118.398 7.12987C118.7 8.07187 118.842 9.05828 118.816 10.0474V14.1213C118.862 14.6243 118.862 15.1304 118.816 15.6334C118.798 15.8129 118.74 15.9861 118.646 16.1401C118.552 16.2941 118.425 16.4249 118.273 16.5229C117.971 16.692 117.631 16.7808 117.286 16.7809V17.5814H123.236V16.7898C122.489 16.7364 122 16.5585 121.778 16.2116" fill="white"/>
  <path d="M93.8833 4.2749C93.6843 4.35745 93.5109 4.49168 93.3811 4.6637C93.2513 4.83571 93.1698 5.03928 93.145 5.25335C93.0472 5.76036 92.8515 6.06279 92.5936 6.14284C92.2989 6.2201 91.9873 6.2014 91.7041 6.08947C90.579 5.13521 89.1296 4.65101 87.6569 4.73744C86.4271 4.64158 85.2094 5.03714 84.2707 5.83745C83.332 6.63775 82.7489 7.77752 82.649 9.00701C82.649 9.1938 82.649 9.3806 82.649 9.56739C82.649 12.2359 83.6719 13.4723 85.9046 13.9437C86.0469 13.9437 86.0469 14.1216 85.9046 14.1394C84.0277 14.4863 82.3466 15.0289 82.3466 16.8523C82.3449 17.2779 82.4759 17.6933 82.7215 18.0409C82.967 18.3885 83.3148 18.6508 83.7164 18.7914C84.9061 19.2007 86.1588 19.3965 87.4167 19.3696C88.4087 19.3602 89.4005 19.4047 90.3876 19.503C90.9648 19.5552 91.5206 19.7476 92.0065 20.0634C92.2169 20.2367 92.3825 20.4582 92.4893 20.709C92.5961 20.9598 92.641 21.2326 92.6202 21.5044C92.6113 21.9315 92.48 22.3471 92.2419 22.7019C92.0039 23.0566 91.669 23.3356 91.2771 23.5058C90.2275 24.0207 89.0649 24.2624 87.897 24.2085C86.8177 24.2867 85.7389 24.0487 84.7927 23.5235C84.5144 23.33 84.3027 23.0552 84.1865 22.7368C84.0703 22.4184 84.0552 22.0719 84.1434 21.7446C84.2286 21.4897 84.2102 21.2116 84.092 20.9702C83.9738 20.7289 83.7654 20.5437 83.5118 20.4548H83.3784C83.1735 20.4287 82.9654 20.4598 82.777 20.5445C82.5887 20.6293 82.4274 20.7645 82.311 20.9351C82.1059 21.2812 82.0098 21.6811 82.0353 22.0826C82.058 22.6589 82.2738 23.2108 82.6481 23.6496C83.0224 24.0885 83.5334 24.3887 84.0989 24.502C85.2113 24.8566 86.3739 25.0278 87.5412 25.009C88.8876 25.0718 90.2301 24.8221 91.4639 24.2796C92.1959 23.9721 92.8219 23.457 93.2645 22.7979C93.7071 22.1387 93.9469 21.3644 93.9545 20.5704C93.9892 19.8035 93.784 19.0449 93.3674 18.4001C92.1221 16.6922 90.3609 16.9235 86.3938 16.7278C84.4903 16.7278 84.1167 16.3898 84.1167 15.8383C84.1167 14.9488 84.8194 14.6375 87.559 14.2194C90.2987 13.8014 92.8159 12.8051 92.8159 9.50513C92.8242 8.69817 92.6541 7.89935 92.3178 7.16576C92.83 7.30793 93.3712 7.30793 93.8833 7.16576C94.1199 7.10205 94.3408 6.99016 94.5321 6.8371C94.7234 6.68404 94.8811 6.4931 94.9952 6.27626C95.1163 6.11069 95.1984 5.91987 95.2354 5.71809C95.2723 5.51631 95.2632 5.30878 95.2087 5.11103C94.9774 4.37275 94.5326 4.1059 93.8566 4.31048M87.7191 13.41C86.1003 13.41 85.1307 12.8229 85.1307 9.53181C85.1307 7.21023 85.9401 5.48461 87.7191 5.48461C89.7472 5.48461 90.2987 7.05902 90.2987 9.47844C90.2987 12.9119 89.2046 13.41 87.7191 13.41Z" fill="white"/>
</svg>
